static/assets/icon.svg

<svg fill="none" height="16" viewBox="0 0 16 16" width="16" xmlns="http://www.w3.org/2000/svg"><g fill="#000"><path d="m4 15h8v1h-8z"/><path d="m4 10h8v1h-2v2h-1v-2h-2v2h-1v-2h-2z"/><path d="m5 0h6v1h-6z"/><path d="m3 1h2v1h-2z"/><path d="m11 1h2v1h-2z"/><path d="m13 2h1v1h-1z"/><path d="m2 2h1v1h-1z"/><path d="m1 3h1v2h-1z"/><path d="m14 3h1v2h-1z"/><path d="m15 5h1v6h-1z"/><path d="m4 11h-3v1h1v2h1v-2h1z"/><path d="m15 11h-3v1h1v2h1v-2h1z"/><path d="m0 5h1v6h-1z"/><path d="m3 14h1v1h-1z"/><path d="m12 14h1v1h-1z"/></g><path d="m6 11h-2v1h-1v2h1v1h8v-1h1v-2h-1v-1h-2v2h-1v-2h-2v2h-1z" fill="#fff"/><path d="m1 11v-6h1v-2h1v-1h2v-1h6v1h2v1h1v2h1v6h-3v-1h-8v1z" fill="#f00"/><path d="m7 4h4v1h1v3h-1v1h-4v-1h-1v-3h1z" fill="#fff"/><path d="m5 1h2v2h-1v1h-4v-1h1v-1h2z" fill="#fff"/><path d="m15 7h-1v1h-1v2h1v1h1z" fill="#fff"/><path d="m11 2v1h1v1h1v1h1v-2h-1v-1z" fill="#fff"/><path d="m2 5h2v1h1v3h-1v1h-2v-1h-1v-3h1z" fill="#fff"/></svg>

<svg width="16" height="16" viewBox="0 0 16 16" fill="none" xmlns="http://www.w3.org/2000/svg">
<rect width="16" height="16" fill="white"/>
<rect x="4" y="15" width="8" height="1" fill="black"/>
<path d="M4 10H12V11H10V13H9V11H7V13H6V11H4V10Z" fill="black"/>
<rect x="5" width="6" height="1" fill="black"/>
<rect x="3" y="1" width="2" height="1" fill="black"/>
<rect x="11" y="1" width="2" height="1" fill="black"/>
<rect x="13" y="2" width="1" height="1" fill="black"/>
<rect x="2" y="2" width="1" height="1" fill="black"/>
<rect x="1" y="3" width="1" height="2" fill="black"/>
<rect x="14" y="3" width="1" height="2" fill="black"/>
<rect x="15" y="5" width="1" height="6" fill="black"/>
<path d="M4 11H1V12H2V14H3V12H4V11Z" fill="black"/>
<path d="M15 11H12V12H13V14H14V12H15V11Z" fill="black"/>
<rect y="5" width="1" height="6" fill="black"/>
<rect x="3" y="14" width="1" height="1" fill="black"/>
<rect x="12" y="14" width="1" height="1" fill="black"/>
<path d="M6 11H4V12H3V14H4V15H12V14H13V12H12V11H10V13H9V11H7V13H6V11Z" fill="white"/>
<path d="M1 11V5H2V3H3V2H5V1H11V2H13V3H14V5H15V11H12V10H4V11H1Z" fill="#FF0000"/>
<path d="M7 4H11V5H12V8H11V9H7V8H6V5H7V4Z" fill="white"/>
<path d="M5 1H7V3H6V4H2V3H3V2H5V1Z" fill="white"/>
<path d="M15 7H14V8H13V10H14V11H15V7Z" fill="white"/>
<path d="M11 2V3H12V4H13V5H14V3H13V2H11Z" fill="white"/>
<path d="M2 5H4V6H5V9H4V10H2V9H1V6H2V5Z" fill="white"/>
</svg>
